X: 20444
M: 2/4
L: 1/16
K: D
|: cd |\
e^dfe gfag | dced fdbg | fa^ga dfef | eagb a2cd |\
e^dfe gfag | dced fdag | fadf egce | dAFA d2 :|


